X: 31497
T: Paddy Whack's
R: jig
M: 6/8
K: Gmajor
|:BAG AGF|G2g fdc|BAG AGF|Ggf d2c|
BAG AGF|G2g fdc|BAB cBc|Ggf d2c:|
|:Aff Agg|agf dec|Aff Agg|agf d2c|
Aff Agg|bag fde|fef gfg|agf d2c:|

